T: Lemonville, The
M: 6/8
L: 1/8
K: Dmaj
aba afd | fgf fdA | ded dAF | G3- Gef |gag gec | efe ecA | cBA gfe | f3- ffg |aba afd | fgf fdA | ded def | B3- Bef |gag gec | efe ecA | cBA gfe | d3- d ||FGA AA/B/c | ded dd/e/f | gag gfe | B3- Bed |cea aed | cea a2 e | cea gfe |[1 fdB A- :|[2 d3- d |]
